docs/content/guide/validation-and-rendering/diagrams/validation-rendering-flow-dark.svg

<svg xmlns="http://www.w3.org/2000/svg" width="952" height="437pt" viewBox="0 0 714 437"><g id="graph0" class="graph" transform="translate(7.2 430.24)"><title>ValidationRenderingFlow</title><g id="node1" class="node"><title>start</title><path fill="#193966" stroke="#6c8ebf" d="M65.82-418H12c-6 0-12 6-12 12v12c0 6 6 12 12 12h53.82c6 0 12-6 12-12v-12c0-6-6-12-12-12"/><text xml:space="preserve" x="38.91" y="-403" fill="#d9d9d9" font-family="Times,serif" font-size="10" text-anchor="middle">getCollection()</text><text xml:space="preserve" x="38.91" y="-391" fill="#d9d9d9" font-family="Times,serif" font-size="10" text-anchor="middle">load files</text></g><g id="node2" class="node"><title>schema</title><path fill="#193966" stroke="#6c8ebf" d="M190.79-423.04h-65.76c-6 0-12 6-12 12v22.08c0 6 6 12 12 12h65.76c6 0 12-6 12-12v-22.08c0-6-6-12-12-12"/><text xml:space="preserve" x="157.91" y="-409" fill="#d9d9d9" font-family="Times,serif" font-size="10" text-anchor="middle">Phase 1</text><text xml:space="preserve" x="157.91" y="-397" fill="#d9d9d9" font-family="Times,serif" font-size="10" text-anchor="middle">schema validation</text><text xml:space="preserve" x="157.91" y="-385" fill="#d9d9d9" font-family="Times,serif" font-size="10" text-anchor="middle">(Zod)</text></g><g id="edge1" class="edge"><title>start-&gt;schema</title><path fill="none" stroke="#aaa" d="M77.96-400h23.29"/><path fill="#404040" stroke="#aaa" d="m101.11-403.5 10 3.5-10 3.5z"/></g><g id="node3" class="node"><title>mdast</title><path fill="#193966" stroke="#6c8ebf" d="M188.01-345.96H127.8c-6 0-12 6-12 12v12c0 6 6 12 12 12h60.21c6 0 12-6 12-12v-12c0-6-6-12-12-12"/><text xml:space="preserve" x="157.91" y="-330.96" fill="#d9d9d9" font-family="Times,serif" font-size="10" text-anchor="middle">Parse markdown</text><text xml:space="preserve" x="157.91" y="-318.96" fill="#d9d9d9" font-family="Times,serif" font-size="10" text-anchor="middle">shared MDAST</text></g><g id="edge2" class="edge"><title>schema-&gt;mdast</title><path fill="none" stroke="#aaa" d="M157.91-376.84v19.57"/><path fill="#404040" stroke="#aaa" d="m161.41-357.61-3.5 10-3.5-10z"/></g><g id="node4" class="node"><title>validators</title><path fill="#193966" stroke="#6c8ebf" d="M312.23-345.96h-64.65c-6 0-12 6-12 12v12c0 6 6 12 12 12h64.65c6 0 12-6 12-12v-12c0-6-6-12-12-12"/><text xml:space="preserve" x="279.91" y="-330.96" fill="#d9d9d9" font-family="Times,serif" font-size="10" text-anchor="middle">Phase 2</text><text xml:space="preserve" x="279.91" y="-318.96" fill="#d9d9d9" font-family="Times,serif" font-size="10" text-anchor="middle">content validators</text></g><g id="edge3" class="edge"><title>mdast-&gt;validators</title><path fill="none" stroke="#aaa" d="M200.32-327.96h23.4"/><path fill="#404040" stroke="#aaa" d="m223.63-331.46 10 3.5-10 3.5z"/></g><g id="node5" class="node"><title>plugins</title><path fill="#193966" stroke="#6c8ebf" d="M309.73-278.96h-59.65c-6 0-12 6-12 12v12c0 6 6 12 12 12h59.65c6 0 12-6 12-12v-12c0-6-6-12-12-12"/><text xml:space="preserve" x="279.91" y="-263.96" fill="#d9d9d9" font-family="Times,serif" font-size="10" text-anchor="middle">Phase 3</text><text xml:space="preserve" x="279.91" y="-251.96" fill="#d9d9d9" font-family="Times,serif" font-size="10" text-anchor="middle">plugin validate()</text></g><g id="edge4" class="edge"><title>validators-&gt;plugins</title><path fill="none" stroke="#aaa" d="M279.91-309.54v18.94"/><path fill="#404040" stroke="#aaa" d="m283.41-290.94-3.5 10-3.5-10z"/></g><g id="node6" class="node"><title>entry</title><path fill="#193966" stroke="#6c8ebf" d="M446.35-278.96h-76.88c-6 0-12 6-12 12v12c0 6 6 12 12 12h76.88c6 0 12-6 12-12v-12c0-6-6-12-12-12"/><text xml:space="preserve" x="407.91" y="-263.96" fill="#d9d9d9" font-family="Times,serif" font-size="10" text-anchor="middle">Return ContentEntry</text><text xml:space="preserve" x="407.91" y="-251.96" fill="#d9d9d9" font-family="Times,serif" font-size="10" text-anchor="middle">+ issues</text></g><g id="edge5" class="edge"><title>plugins-&gt;entry</title><path fill="none" stroke="#aaa" d="M322.16-260.96h23.4"/><path fill="#404040" stroke="#aaa" d="m345.48-264.46 10 3.5-10 3.5z"/></g><g id="node7" class="node"><title>render</title><path fill="#193966" stroke="#6c8ebf" d="m397.05-206.86-50.8 23.88c-5.44 2.55-5.44 7.65 0 10.2l50.8 23.88c5.43 2.55 16.29 2.55 21.72 0l50.8-23.88c5.43-2.55 5.43-7.65 0-10.2l-50.8-23.88c-5.43-2.55-16.29-2.55-21.72 0"/><text xml:space="preserve" x="407.91" y="-180.88" fill="#d9d9d9" font-family="Times,serif" font-size="10" text-anchor="middle">entry.render()</text><text xml:space="preserve" x="407.91" y="-168.88" fill="#d9d9d9" font-family="Times,serif" font-size="10" text-anchor="middle">called?</text></g><g id="edge6" class="edge"><title>entry-&gt;render</title><path fill="none" stroke="#aaa" d="M407.91-242.77v18.98"/><path fill="#404040" stroke="#aaa" d="m411.41-223.94-3.5 10-3.5-10z"/></g><g id="node8" class="node"><title>wait</title><path fill="#193966" stroke="#6c8ebf" d="M601.54-195.88h-73.26c-6 0-12 6-12 12v12c0 6 6 12 12 12h73.26c6 0 12-6 12-12v-12c0-6-6-12-12-12"/><text xml:space="preserve" x="564.91" y="-180.88" fill="#d9d9d9" font-family="Times,serif" font-size="10" text-anchor="middle">Loading stays fast</text><text xml:space="preserve" x="564.91" y="-168.88" fill="#d9d9d9" font-family="Times,serif" font-size="10" text-anchor="middle">until HTML needed</text></g><g id="edge7" class="edge"><title>render-&gt;wait</title><path fill="none" stroke="#aaa" d="M481.35-177.88h23.42"/><path fill="#404040" stroke="#aaa" d="m504.66-181.38 10 3.5-10 3.5z"/><text xml:space="preserve" x="498.36" y="-183.58" fill="#d9d9d9" font-family="Times,serif" font-size="9" text-anchor="middle">No</text></g><g id="node9" class="node"><title>pipeline</title><path fill="#193966" stroke="#6c8ebf" d="M452.87-103h-89.93c-6 0-12 6-12 12v12c0 6 6 12 12 12h89.93c6 0 12-6 12-12v-12c0-6-6-12-12-12"/><text xml:space="preserve" x="407.91" y="-88" fill="#d9d9d9" font-family="Times,serif" font-size="10" text-anchor="middle">Run markdown pipeline</text><text xml:space="preserve" x="407.91" y="-76" fill="#d9d9d9" font-family="Times,serif" font-size="10" text-anchor="middle">build HTML</text></g><g id="edge8" class="edge"><title>render-&gt;pipeline</title><path fill="none" stroke="#aaa" d="M407.91-143.3v28.68"/><path fill="#404040" stroke="#aaa" d="m411.41-114.92-3.5 10-3.5-10z"/><text xml:space="preserve" x="414.91" y="-120.7" fill="#d9d9d9" font-family="Times,serif" font-size="9" text-anchor="middle">Yes</text></g><g id="node10" class="node"><title>headings</title><path fill="#193966" stroke="#6c8ebf" d="M573.01-103h-60.2c-6 0-12 6-12 12v12c0 6 6 12 12 12h60.2c6 0 12-6 12-12v-12c0-6-6-12-12-12"/><text xml:space="preserve" x="542.91" y="-88" fill="#d9d9d9" font-family="Times,serif" font-size="10" text-anchor="middle">Extract headings</text><text xml:space="preserve" x="542.91" y="-76" fill="#d9d9d9" font-family="Times,serif" font-size="10" text-anchor="middle">+ read time</text></g><g id="edge9" class="edge"><title>pipeline-&gt;headings</title><path fill="none" stroke="#aaa" d="M465.13-85h23.95"/><path fill="#404040" stroke="#aaa" d="m488.86-88.5 10 3.5-10 3.5z"/></g><g id="node11" class="node"><title>cache</title><path fill="#193966" stroke="#6c8ebf" d="M588.28-36h-90.74c-6 0-12 6-12 12v12c0 6 6 12 12 12h90.74c6 0 12-6 12-12v-12c0-6-6-12-12-12"/><text xml:space="preserve" x="542.91" y="-15" fill="#d9d9d9" font-family="Times,serif" font-size="10" text-anchor="middle">Cache RenderedContent</text></g><g id="edge10" class="edge"><title>headings-&gt;cache</title><path fill="none" stroke="#aaa" d="M542.91-66.58v18.94"/><path fill="#404040" stroke="#aaa" d="m546.41-47.98-3.5 10-3.5-10z"/></g><g id="node12" class="node"><title>reuse</title><path fill="#193966" stroke="#6c8ebf" d="M687.72-36h-39.63c-6 0-12 6-12 12v12c0 6 6 12 12 12h39.63c6 0 12-6 12-12v-12c0-6-6-12-12-12"/><text xml:space="preserve" x="667.91" y="-21" fill="#d9d9d9" font-family="Times,serif" font-size="10" text-anchor="middle">Later calls</text><text xml:space="preserve" x="667.91" y="-9" fill="#d9d9d9" font-family="Times,serif" font-size="10" text-anchor="middle">reuse cache</text></g><g id="edge11" class="edge"><title>cache-&gt;reuse</title><path fill="none" stroke="#aaa" d="M600.53-18h23.97"/><path fill="#404040" stroke="#aaa" d="m624.28-21.5 10 3.5-10 3.5z"/></g></g></svg>

<?xml version="1.0" encoding="UTF-8" standalone="no"?>
<!DOCTYPE svg PUBLIC "-//W3C//DTD SVG 1.1//EN"
 "http://www.w3.org/Graphics/SVG/1.1/DTD/svg11.dtd">
<!-- Generated by graphviz version 14.1.5 (20260411.2331)
 -->
<!-- Title: ValidationRenderingFlow Pages: 1 -->
<svg width="714pt" height="437pt"
 viewBox="0.00 0.00 714.00 437.00" xmlns="http://www.w3.org/2000/svg" xmlns:xlink="http://www.w3.org/1999/xlink">
<g id="graph0" class="graph" transform="scale(1 1) rotate(0) translate(7.2 430.24)">
<title>ValidationRenderingFlow</title>
<!-- start -->
<g id="node1" class="node">
<title>start</title>
<path fill="#193966" stroke="#6c8ebf" d="M65.82,-418C65.82,-418 12,-418 12,-418 6,-418 0,-412 0,-406 0,-406 0,-394 0,-394 0,-388 6,-382 12,-382 12,-382 65.82,-382 65.82,-382 71.82,-382 77.82,-388 77.82,-394 77.82,-394 77.82,-406 77.82,-406 77.82,-412 71.82,-418 65.82,-418"/>
<text xml:space="preserve" text-anchor="middle" x="38.91" y="-403" font-family="Times,serif" font-size="10.00" fill="#e5e7eb">getCollection()</text>
<text xml:space="preserve" text-anchor="middle" x="38.91" y="-391" font-family="Times,serif" font-size="10.00" fill="#e5e7eb">load files</text>
</g>
<!-- schema -->
<g id="node2" class="node">
<title>schema</title>
<path fill="#193966" stroke="#6c8ebf" d="M190.79,-423.04C190.79,-423.04 125.03,-423.04 125.03,-423.04 119.03,-423.04 113.03,-417.04 113.03,-411.04 113.03,-411.04 113.03,-388.96 113.03,-388.96 113.03,-382.96 119.03,-376.96 125.03,-376.96 125.03,-376.96 190.79,-376.96 190.79,-376.96 196.79,-376.96 202.79,-382.96 202.79,-388.96 202.79,-388.96 202.79,-411.04 202.79,-411.04 202.79,-417.04 196.79,-423.04 190.79,-423.04"/>
<text xml:space="preserve" text-anchor="middle" x="157.91" y="-409" font-family="Times,serif" font-size="10.00" fill="#e5e7eb">Phase 1</text>
<text xml:space="preserve" text-anchor="middle" x="157.91" y="-397" font-family="Times,serif" font-size="10.00" fill="#e5e7eb">schema validation</text>
<text xml:space="preserve" text-anchor="middle" x="157.91" y="-385" font-family="Times,serif" font-size="10.00" fill="#e5e7eb">(Zod)</text>
</g>
<!-- start&#45;&gt;schema -->
<g id="edge1" class="edge">
<title>start&#45;&gt;schema</title>
<path fill="none" stroke="#aaaaaa" d="M77.96,-400C85.72,-400 93.48,-400 101.25,-400"/>
<polygon fill="#404040" stroke="#aaaaaa" points="101.11,-403.5 111.11,-400 101.11,-396.5 101.11,-403.5"/>
</g>
<!-- mdast -->
<g id="node3" class="node">
<title>mdast</title>
<path fill="#193966" stroke="#6c8ebf" d="M188.01,-345.96C188.01,-345.96 127.8,-345.96 127.8,-345.96 121.8,-345.96 115.8,-339.96 115.8,-333.96 115.8,-333.96 115.8,-321.96 115.8,-321.96 115.8,-315.96 121.8,-309.96 127.8,-309.96 127.8,-309.96 188.01,-309.96 188.01,-309.96 194.01,-309.96 200.01,-315.96 200.01,-321.96 200.01,-321.96 200.01,-333.96 200.01,-333.96 200.01,-339.96 194.01,-345.96 188.01,-345.96"/>
<text xml:space="preserve" text-anchor="middle" x="157.91" y="-330.96" font-family="Times,serif" font-size="10.00" fill="#e5e7eb">Parse markdown</text>
<text xml:space="preserve" text-anchor="middle" x="157.91" y="-318.96" font-family="Times,serif" font-size="10.00" fill="#e5e7eb">shared MDAST</text>
</g>
<!-- schema&#45;&gt;mdast -->
<g id="edge2" class="edge">
<title>schema&#45;&gt;mdast</title>
<path fill="none" stroke="#aaaaaa" d="M157.91,-376.84C157.91,-370.63 157.91,-363.79 157.91,-357.27"/>
<polygon fill="#404040" stroke="#aaaaaa" points="161.41,-357.61 157.91,-347.61 154.41,-357.61 161.41,-357.61"/>
</g>
<!-- validators -->
<g id="node4" class="node">
<title>validators</title>
<path fill="#193966" stroke="#6c8ebf" d="M312.23,-345.96C312.23,-345.96 247.58,-345.96 247.58,-345.96 241.58,-345.96 235.58,-339.96 235.58,-333.96 235.58,-333.96 235.58,-321.96 235.58,-321.96 235.58,-315.96 241.58,-309.96 247.58,-309.96 247.58,-309.96 312.23,-309.96 312.23,-309.96 318.23,-309.96 324.23,-315.96 324.23,-321.96 324.23,-321.96 324.23,-333.96 324.23,-333.96 324.23,-339.96 318.23,-345.96 312.23,-345.96"/>
<text xml:space="preserve" text-anchor="middle" x="279.91" y="-330.96" font-family="Times,serif" font-size="10.00" fill="#e5e7eb">Phase 2</text>
<text xml:space="preserve" text-anchor="middle" x="279.91" y="-318.96" font-family="Times,serif" font-size="10.00" fill="#e5e7eb">content validators</text>
</g>
<!-- mdast&#45;&gt;validators -->
<g id="edge3" class="edge">
<title>mdast&#45;&gt;validators</title>
<path fill="none" stroke="#aaaaaa" d="M200.32,-327.96C208.12,-327.96 215.92,-327.96 223.72,-327.96"/>
<polygon fill="#404040" stroke="#aaaaaa" points="223.63,-331.46 233.63,-327.96 223.63,-324.46 223.63,-331.46"/>
</g>
<!-- plugins -->
<g id="node5" class="node">
<title>plugins</title>
<path fill="#193966" stroke="#6c8ebf" d="M309.73,-278.96C309.73,-278.96 250.08,-278.96 250.08,-278.96 244.08,-278.96 238.08,-272.96 238.08,-266.96 238.08,-266.96 238.08,-254.96 238.08,-254.96 238.08,-248.96 244.08,-242.96 250.08,-242.96 250.08,-242.96 309.73,-242.96 309.73,-242.96 315.73,-242.96 321.73,-248.96 321.73,-254.96 321.73,-254.96 321.73,-266.96 321.73,-266.96 321.73,-272.96 315.73,-278.96 309.73,-278.96"/>
<text xml:space="preserve" text-anchor="middle" x="279.91" y="-263.96" font-family="Times,serif" font-size="10.00" fill="#e5e7eb">Phase 3</text>
<text xml:space="preserve" text-anchor="middle" x="279.91" y="-251.96" font-family="Times,serif" font-size="10.00" fill="#e5e7eb">plugin validate()</text>
</g>
<!-- validators&#45;&gt;plugins -->
<g id="edge4" class="edge">
<title>validators&#45;&gt;plugins</title>
<path fill="none" stroke="#aaaaaa" d="M279.91,-309.54C279.91,-303.71 279.91,-297.05 279.91,-290.6"/>
<polygon fill="#404040" stroke="#aaaaaa" points="283.41,-290.94 279.91,-280.94 276.41,-290.94 283.41,-290.94"/>
</g>
<!-- entry -->
<g id="node6" class="node">
<title>entry</title>
<path fill="#193966" stroke="#6c8ebf" d="M446.35,-278.96C446.35,-278.96 369.47,-278.96 369.47,-278.96 363.47,-278.96 357.47,-272.96 357.47,-266.96 357.47,-266.96 357.47,-254.96 357.47,-254.96 357.47,-248.96 363.47,-242.96 369.47,-242.96 369.47,-242.96 446.35,-242.96 446.35,-242.96 452.35,-242.96 458.35,-248.96 458.35,-254.96 458.35,-254.96 458.35,-266.96 458.35,-266.96 458.35,-272.96 452.35,-278.96 446.35,-278.96"/>
<text xml:space="preserve" text-anchor="middle" x="407.91" y="-263.96" font-family="Times,serif" font-size="10.00" fill="#e5e7eb">Return ContentEntry</text>
<text xml:space="preserve" text-anchor="middle" x="407.91" y="-251.96" font-family="Times,serif" font-size="10.00" fill="#e5e7eb">+ issues</text>
</g>
<!-- plugins&#45;&gt;entry -->
<g id="edge5" class="edge">
<title>plugins&#45;&gt;entry</title>
<path fill="none" stroke="#aaaaaa" d="M322.16,-260.96C329.96,-260.96 337.76,-260.96 345.56,-260.96"/>
<polygon fill="#404040" stroke="#aaaaaa" points="345.48,-264.46 355.48,-260.96 345.48,-257.46 345.48,-264.46"/>
</g>
<!-- render -->
<g id="node7" class="node">
<title>render</title>
<path fill="#193966" stroke="#6c8ebf" d="M397.05,-206.86C397.05,-206.86 346.25,-182.98 346.25,-182.98 340.81,-180.43 340.81,-175.33 346.25,-172.78 346.25,-172.78 397.05,-148.9 397.05,-148.9 402.48,-146.35 413.34,-146.35 418.77,-148.9 418.77,-148.9 469.57,-172.78 469.57,-172.78 475,-175.33 475,-180.43 469.57,-182.98 469.57,-182.98 418.77,-206.86 418.77,-206.86 413.34,-209.41 402.48,-209.41 397.05,-206.86"/>
<text xml:space="preserve" text-anchor="middle" x="407.91" y="-180.88" font-family="Times,serif" font-size="10.00" fill="#e5e7eb">entry.render()</text>
<text xml:space="preserve" text-anchor="middle" x="407.91" y="-168.88" font-family="Times,serif" font-size="10.00" fill="#e5e7eb">called?</text>
</g>
<!-- entry&#45;&gt;render -->
<g id="edge6" class="edge">
<title>entry&#45;&gt;render</title>
<path fill="none" stroke="#aaaaaa" d="M407.91,-242.77C407.91,-237.11 407.91,-230.53 407.91,-223.79"/>
<polygon fill="#404040" stroke="#aaaaaa" points="411.41,-223.94 407.91,-213.94 404.41,-223.94 411.41,-223.94"/>
</g>
<!-- wait -->
<g id="node8" class="node">
<title>wait</title>
<path fill="#193966" stroke="#6c8ebf" d="M601.54,-195.88C601.54,-195.88 528.28,-195.88 528.28,-195.88 522.28,-195.88 516.28,-189.88 516.28,-183.88 516.28,-183.88 516.28,-171.88 516.28,-171.88 516.28,-165.88 522.28,-159.88 528.28,-159.88 528.28,-159.88 601.54,-159.88 601.54,-159.88 607.54,-159.88 613.54,-165.88 613.54,-171.88 613.54,-171.88 613.54,-183.88 613.54,-183.88 613.54,-189.88 607.54,-195.88 601.54,-195.88"/>
<text xml:space="preserve" text-anchor="middle" x="564.91" y="-180.88" font-family="Times,serif" font-size="10.00" fill="#e5e7eb">Loading stays fast</text>
<text xml:space="preserve" text-anchor="middle" x="564.91" y="-168.88" font-family="Times,serif" font-size="10.00" fill="#e5e7eb">until HTML needed</text>
</g>
<!-- render&#45;&gt;wait -->
<g id="edge7" class="edge">
<title>render&#45;&gt;wait</title>
<path fill="none" stroke="#aaaaaa" d="M481.35,-177.88C489.2,-177.88 497.11,-177.88 504.77,-177.88"/>
<polygon fill="#404040" stroke="#aaaaaa" points="504.66,-181.38 514.66,-177.88 504.66,-174.38 504.66,-181.38"/>
<text xml:space="preserve" text-anchor="middle" x="498.36" y="-183.58" font-family="Times,serif" font-size="9.00" fill="#e5e7eb">No</text>
</g>
<!-- pipeline -->
<g id="node9" class="node">
<title>pipeline</title>
<path fill="#193966" stroke="#6c8ebf" d="M452.87,-103C452.87,-103 362.94,-103 362.94,-103 356.94,-103 350.94,-97 350.94,-91 350.94,-91 350.94,-79 350.94,-79 350.94,-73 356.94,-67 362.94,-67 362.94,-67 452.87,-67 452.87,-67 458.87,-67 464.87,-73 464.87,-79 464.87,-79 464.87,-91 464.87,-91 464.87,-97 458.87,-103 452.87,-103"/>
<text xml:space="preserve" text-anchor="middle" x="407.91" y="-88" font-family="Times,serif" font-size="10.00" fill="#e5e7eb">Run markdown pipeline</text>
<text xml:space="preserve" text-anchor="middle" x="407.91" y="-76" font-family="Times,serif" font-size="10.00" fill="#e5e7eb">build HTML</text>
</g>
<!-- render&#45;&gt;pipeline -->
<g id="edge8" class="edge">
<title>render&#45;&gt;pipeline</title>
<path fill="none" stroke="#aaaaaa" d="M407.91,-143.3C407.91,-133.88 407.91,-123.72 407.91,-114.62"/>
<polygon fill="#404040" stroke="#aaaaaa" points="411.41,-114.92 407.91,-104.92 404.41,-114.92 411.41,-114.92"/>
<text xml:space="preserve" text-anchor="middle" x="414.91" y="-120.7" font-family="Times,serif" font-size="9.00" fill="#e5e7eb">Yes</text>
</g>
<!-- headings -->
<g id="node10" class="node">
<title>headings</title>
<path fill="#193966" stroke="#6c8ebf" d="M573.01,-103C573.01,-103 512.81,-103 512.81,-103 506.81,-103 500.81,-97 500.81,-91 500.81,-91 500.81,-79 500.81,-79 500.81,-73 506.81,-67 512.81,-67 512.81,-67 573.01,-67 573.01,-67 579.01,-67 585.01,-73 585.01,-79 585.01,-79 585.01,-91 585.01,-91 585.01,-97 579.01,-103 573.01,-103"/>
<text xml:space="preserve" text-anchor="middle" x="542.91" y="-88" font-family="Times,serif" font-size="10.00" fill="#e5e7eb">Extract headings</text>
<text xml:space="preserve" text-anchor="middle" x="542.91" y="-76" font-family="Times,serif" font-size="10.00" fill="#e5e7eb">+ read time</text>
</g>
<!-- pipeline&#45;&gt;headings -->
<g id="edge9" class="edge">
<title>pipeline&#45;&gt;headings</title>
<path fill="none" stroke="#aaaaaa" d="M465.13,-85C473.11,-85 481.1,-85 489.08,-85"/>
<polygon fill="#404040" stroke="#aaaaaa" points="488.86,-88.5 498.86,-85 488.86,-81.5 488.86,-88.5"/>
</g>
<!-- cache -->
<g id="node11" class="node">
<title>cache</title>
<path fill="#193966" stroke="#6c8ebf" d="M588.28,-36C588.28,-36 497.54,-36 497.54,-36 491.54,-36 485.54,-30 485.54,-24 485.54,-24 485.54,-12 485.54,-12 485.54,-6 491.54,0 497.54,0 497.54,0 588.28,0 588.28,0 594.28,0 600.28,-6 600.28,-12 600.28,-12 600.28,-24 600.28,-24 600.28,-30 594.28,-36 588.28,-36"/>
<text xml:space="preserve" text-anchor="middle" x="542.91" y="-15" font-family="Times,serif" font-size="10.00" fill="#e5e7eb">Cache RenderedContent</text>
</g>
<!-- headings&#45;&gt;cache -->
<g id="edge10" class="edge">
<title>headings&#45;&gt;cache</title>
<path fill="none" stroke="#aaaaaa" d="M542.91,-66.58C542.91,-60.75 542.91,-54.09 542.91,-47.64"/>
<polygon fill="#404040" stroke="#aaaaaa" points="546.41,-47.98 542.91,-37.98 539.41,-47.98 546.41,-47.98"/>
</g>
<!-- reuse -->
<g id="node12" class="node">
<title>reuse</title>
<path fill="#193966" stroke="#6c8ebf" d="M687.72,-36C687.72,-36 648.09,-36 648.09,-36 642.09,-36 636.09,-30 636.09,-24 636.09,-24 636.09,-12 636.09,-12 636.09,-6 642.09,0 648.09,0 648.09,0 687.72,0 687.72,0 693.72,0 699.72,-6 699.72,-12 699.72,-12 699.72,-24 699.72,-24 699.72,-30 693.72,-36 687.72,-36"/>
<text xml:space="preserve" text-anchor="middle" x="667.91" y="-21" font-family="Times,serif" font-size="10.00" fill="#e5e7eb">Later calls</text>
<text xml:space="preserve" text-anchor="middle" x="667.91" y="-9" font-family="Times,serif" font-size="10.00" fill="#e5e7eb">reuse cache</text>
</g>
<!-- cache&#45;&gt;reuse -->
<g id="edge11" class="edge">
<title>cache&#45;&gt;reuse</title>
<path fill="none" stroke="#aaaaaa" d="M600.53,-18C608.52,-18 616.51,-18 624.5,-18"/>
<polygon fill="#404040" stroke="#aaaaaa" points="624.28,-21.5 634.28,-18 624.28,-14.5 624.28,-21.5"/>
</g>
</g>
</svg>
